;FLAVOR:Marlin
M117 Time Left 0h22m05s
;Filament used: 0.475261m
;Layer height: 0.12
;MINX:103.122
;MINY:105
;MINZ:0.12
;MAXX:127.902
;MAXY:129.78
;MAXZ:2.12
;POSTPROCESSED
;Generated with Cura_SteamEngine 4.5.0
M82 ;absolute extrusion mode
; Ender 3 Custom Start G-code
G92 E0 ; Reset Extruder
G1 Z2.0 F3000 ; Move Z Axis up little to prevent scratching of Heat Bed

;*** Start Preheating ***
M140 S55 ; start preheating the bed
M104 S200 ﻿T0 ; start preheating hotend
G28 ; home
M190 S55 ; heat to Cura Bed setting
M109 S200 ﻿T0 ; heat to Cura Hotend
;*** End Preheating ***

G1 X0.1 Y20 Z0.3 F5000.0 ; Move to start position
G1 X0.1 Y200.0 Z0.3 F1500.0 E15 ; Draw the first line
G1 X0.4 Y200.0 Z0.3 F5000.0 ; Move to side a little
G1 X0.4 Y20 Z0.3 F1500.0 E30 ; Draw the second line


G92 E0 ; Reset Extruder
G1 Z2.0 F3000 ; Move Z Axis up little to prevent scratching of Heat Bed
G1 X5 Y20 Z0.3 F5000.0 ; Move over to prevent blob squish
G92 E0
G92 E0
G1 F2700 E-5
;LAYER_COUNT:16
;LAYER:0
M117 Layer 0 of 15 CE3_ironing_test
M107
G1 F300 Z0.32
;MESH:ironing_test.STL
G0 F6000 X126.802 Y128.9 Z0.32
;TYPE:WALL-INNER
G1 F300 Z0.12
G1 F2700 E0
G1 F1200 X104.002 Y128.9 E0.5005
G1 X104.002 Y106.1 E1.001
G1 X126.802 Y106.1 E1.5015
G1 X126.802 Y128.9 E2.00199
G0 F6000 X127.242 Y129.34
G1 F1200 X103.562 Y129.34 E2.52181
G1 X103.562 Y105.66 E3.04163
G1 X127.242 Y105.66 E3.56144
G1 X127.242 Y129.34 E4.08126
G0 F6000 X127.682 Y129.78
;TYPE:WALL-OUTER
G1 F1200 X103.122 Y129.78 E4.62039
G1 X103.122 Y105.22 E5.15953
G1 X127.682 Y105.22 E5.69866
G1 X127.682 Y129.78 E6.23779
G0 F6000 X127.392 Y129.49
G0 X126.672 Y128.47
G0 X126.372 Y128.47
;TYPE:SKIN
G1 F1200 X104.432 Y128.47 E6.71941
G1 X104.432 Y106.53 E7.20103
G1 X126.372 Y106.53 E7.68265
G1 X126.372 Y128.47 E8.16427
G0 F6000 X126.672 Y128.47
G0 X126.672 Y106.906
G0 X126.195 Y106.906
G1 F1200 X125.995 Y106.705 E8.1705
G0 F6000 X125.373 Y106.705
G1 F1200 X126.195 Y107.528 E8.19603
G0 F6000 X126.195 Y108.15
G1 F1200 X124.751 Y106.705 E8.24087
G0 F6000 X124.129 Y106.705
G1 F1200 X126.195 Y108.772 E8.30503
G0 F6000 X126.195 Y109.395
G1 F1200 X123.506 Y106.705 E8.38852
G0 F6000 X122.884 Y106.705
G1 F1200 X126.195 Y110.017 E8.49132
G0 F6000 X126.195 Y110.639
G1 F1200 X122.262 Y106.705 E8.61344
G0 F6000 X121.64 Y106.705
G1 F1200 X126.195 Y111.261 E8.75486
G0 F6000 X126.195 Y111.884
G1 F1200 X121.017 Y106.705 E8.91562
G0 F6000 X120.395 Y106.705
G1 F1200 X126.195 Y112.506 E9.0957
G0 F6000 X126.195 Y113.128
G1 F1200 X119.773 Y106.705 E9.29508
G0 F6000 X119.151 Y106.705
G1 F1200 X126.195 Y113.75 E9.51377
G0 F6000 X126.195 Y114.373
G1 F1200 X118.528 Y106.705 E9.7518
G0 F6000 X117.906 Y106.705
G1 F1200 X126.195 Y114.995 E10.00915
G0 F6000 X126.195 Y115.617
G1 F1200 X117.284 Y106.705 E10.2858
G0 F6000 X116.662 Y106.705
G1 F1200 X126.195 Y116.239 E10.58176
G0 F6000 X126.195 Y116.862
G1 F1200 X116.039 Y106.705 E10.89706
G0 F6000 X115.417 Y106.705
G1 F1200 X126.195 Y117.484 E11.23167
G0 F6000 X126.195 Y118.106
G1 F1200 X114.795 Y106.705 E11.5856
G0 F6000 X114.172 Y106.705
G1 F1200 X126.195 Y118.728 E11.95884
G0 F6000 X126.195 Y119.351
G1 F1200 X113.55 Y106.705 E12.35141
G0 F6000 X112.928 Y106.705
G1 F1200 X126.195 Y119.973 E12.76329
G0 F6000 X126.195 Y120.595
G1 F1200 X112.306 Y106.705 E13.19449
G0 F6000 X111.683 Y106.705
G1 F1200 X126.195 Y121.217 E13.645
G0 F6000 X126.195 Y121.84
G1 F1200 X111.061 Y106.705 E14.11484
G0 F6000 X110.439 Y106.705
G1 F1200 X126.195 Y122.462 E14.60399
G0 F6000 X126.195 Y123.084
G1 F1200 X109.817 Y106.705 E15.11245
G0 F6000 X109.194 Y106.705
G1 F1200 X126.195 Y123.706 E15.64024
G0 F6000 X126.195 Y124.329
G1 F1200 X108.572 Y106.705 E16.18735
G0 F6000 X107.95 Y106.705
G1 F1200 X126.195 Y124.951 E16.75377
G0 F6000 X126.195 Y125.573
G1 F1200 X107.328 Y106.705 E17.3395
G0 F6000 X106.705 Y106.705
G1 F1200 X126.195 Y126.195 E17.94455
G0 F6000 X126.195 Y126.818
G1 F1200 X106.083 Y106.705 E18.56893
G0 F6000 X105.461 Y106.705
G1 F1200 X126.195 Y127.44 E19.21262
G0 F6000 X126.195 Y128.062
G1 F1200 X104.839 Y106.705 E19.87562
G0 F6000 X104.607 Y107.096
G1 F1200 X125.804 Y128.293 E20.53367
G0 F6000 X125.181 Y128.293
G1 F1200 X104.607 Y107.719 E21.17238
G0 F6000 X104.607 Y108.341
G1 F1200 X124.559 Y128.293 E21.79178
G0 F6000 X123.937 Y128.293
G1 F1200 X104.607 Y108.963 E22.39186
G0 F6000 X104.607 Y109.585
G1 F1200 X123.315 Y128.293 E22.97264
G0 F6000 X122.692 Y128.293
G1 F1200 X104.607 Y110.208 E23.53408
G0 F6000 X104.607 Y110.83
G1 F1200 X122.07 Y128.293 E24.07621
G0 F6000 X121.448 Y128.293
G1 F1200 X104.607 Y111.452 E24.59903
G0 F6000 X104.607 Y112.075
G1 F1200 X120.826 Y128.293 E25.10252
G0 F6000 X120.203 Y128.293
G1 F1200 X104.607 Y112.697 E25.58669
G0 F6000 X104.607 Y113.319
G1 F1200 X119.581 Y128.293 E26.05155
G0 F6000 X118.959 Y128.293
G1 F1200 X104.607 Y113.941 E26.49709
G0 F6000 X104.607 Y114.564
G1 F1200 X118.337 Y128.293 E26.92332
G0 F6000 X117.714 Y128.293
G1 F1200 X104.607 Y115.186 E27.33022
G0 F6000 X104.607 Y115.808
G1 F1200 X117.092 Y128.293 E27.71781
G0 F6000 X116.47 Y128.293
G1 F1200 X104.607 Y116.43 E28.08609
G0 F6000 X104.607 Y117.053
G1 F1200 X115.848 Y128.293 E28.43504
G0 F6000 X115.225 Y128.293
G1 F1200 X104.607 Y117.675 E28.76467
G0 F6000 X104.607 Y118.297
G1 F1200 X114.603 Y128.293 E29.07499
G0 F6000 X113.981 Y128.293
G1 F1200 X104.607 Y118.919 E29.366
G0 F6000 X104.607 Y119.542
G1 F1200 X113.359 Y128.293 E29.63768
G0 F6000 X112.736 Y128.293
G1 F1200 X104.607 Y120.164 E29.89004
G0 F6000 X104.607 Y120.786
G1 F1200 X112.114 Y128.293 E30.12309
G0 F6000 X111.492 Y128.293
G1 F1200 X104.607 Y121.408 E30.33683
G0 F6000 X104.607 Y122.031
G1 F1200 X110.87 Y128.293 E30.53125
G0 F6000 X110.247 Y128.293
G1 F1200 X104.607 Y122.653 E30.70634
G0 F6000 X104.607 Y123.275
G1 F1200 X109.625 Y128.293 E30.86212
G0 F6000 X109.003 Y128.293
G1 F1200 X104.607 Y123.897 E30.99859
G0 F6000 X104.607 Y124.52
G1 F1200 X108.381 Y128.293 E31.11574
G0 F6000 X107.758 Y128.293
G1 F1200 X104.607 Y125.142 E31.21356
G0 F6000 X104.607 Y125.764
G1 F1200 X107.136 Y128.293 E31.29207
G0 F6000 X106.514 Y128.293
G1 F1200 X104.607 Y126.386 E31.35127
G0 F6000 X104.607 Y127.009
G1 F1200 X105.892 Y128.293 E31.39115
G0 F6000 X105.269 Y128.293
G1 F1200 X104.607 Y127.631 E31.4117
M104 S200
G0 F6000 X103.792 Y127.631
;MESH:NONMESH
G0 F300 X103.792 Y127.631 Z0.24
G0 F6000 X104.204 Y128.698
G0 X126.802 Y128.9
M117 Time Left 0h20m42s
;LAYER:1
M117 Layer 1 of 15 CE3_ironing_test
M140 S55
M106 S85
;TYPE:WALL-INNER
;MESH:ironing_test.STL
G1 F1350 X104.002 Y128.9 E31.9122
G1 X104.002 Y106.1 E32.4127
G1 X126.802 Y106.1 E32.91319
G1 X126.802 Y128.9 E33.41369
G0 F7500 X127.242 Y129.34
G1 F1350 X103.562 Y129.34 E33.93351
G1 X103.562 Y105.66 E34.45332
G1 X127.242 Y105.66 E34.97314
G1 X127.242 Y129.34 E35.49296
G0 F7500 X127.682 Y129.78
;TYPE:WALL-OUTER
G1 F1350 X103.122 Y129.78 E36.03209
G1 X103.122 Y105.22 E36.57122
G1 X127.682 Y105.22 E37.11036
G1 X127.682 Y129.78 E37.64949
G0 F7500 X127.392 Y129.49
G0 X126.672 Y128.47
G0 X126.372 Y128.47
;TYPE:SKIN
G1 F1350 X104.432 Y128.47 E38.13111
G1 X104.432 Y106.53 E38.61273
G1 X126.372 Y106.53 E39.09435
G1 X126.372 Y128.47 E39.57597
G0 F7500 X125.586 Y128.293
G1 F1350 X126.195 Y127.684 E39.59488
G0 F7500 X126.195 Y127.062
G1 F1350 X124.964 Y128.293 E39.63309
G0 F7500 X124.341 Y128.293
G1 F1350 X126.195 Y126.439 E39.69065
G0 F7500 X126.195 Y125.817
G1 F1350 X123.719 Y128.293 E39.76751
G0 F7500 X123.097 Y128.293
G1 F1350 X126.195 Y125.195 E39.86369
G0 F7500 X126.195 Y124.573
G1 F1350 X122.475 Y128.293 E39.97917
G0 F7500 X121.852 Y128.293
G1 F1350 X126.195 Y123.95 E40.114
G0 F7500 X126.195 Y123.328
G1 F1350 X121.23 Y128.293 E40.26814
G0 F7500 X120.608 Y128.293
G1 F1350 X126.195 Y122.706 E40.44158
G0 F7500 X126.195 Y122.084
G1 F1350 X119.986 Y128.293 E40.63434
G0 F7500 X119.363 Y128.293
G1 F1350 X126.195 Y121.461 E40.84643
G0 F7500 X126.195 Y120.839
G1 F1350 X118.741 Y128.293 E41.07784
G0 F7500 X118.119 Y128.293
G1 F1350 X126.195 Y120.217 E41.32855
G0 F7500 X126.195 Y119.595
G1 F1350 X117.497 Y128.293 E41.59857
G0 F7500 X116.874 Y128.293
G1 F1350 X126.195 Y118.972 E41.88794
G0 F7500 X126.195 Y118.35
G1 F1350 X116.252 Y128.293 E42.19661
G0 F7500 X115.63 Y128.293
G1 F1350 X126.195 Y117.728 E42.5246
G0 F7500 X126.195 Y117.106
G1 F1350 X115.008 Y128.293 E42.87189
G0 F7500 X114.385 Y128.293
G1 F1350 X126.195 Y116.483 E43.23852
G0 F7500 X126.195 Y115.861
G1 F1350 X113.763 Y128.293 E43.62447
G0 F7500 X113.141 Y128.293
G1 F1350 X126.195 Y115.239 E44.02972
G0 F7500 X126.195 Y114.617
G1 F1350 X112.519 Y128.293 E44.45428
G0 F7500 X111.896 Y128.293
G1 F1350 X126.195 Y113.994 E44.89819
G0 F7500 X126.195 Y113.372
G1 F1350 X111.274 Y128.293 E45.3614
G0 F7500 X110.652 Y128.293
G1 F1350 X126.195 Y112.75 E45.84392
G0 F7500 X126.195 Y112.128
G1 F1350 X110.03 Y128.293 E46.34576
G0 F7500 X109.407 Y128.293
G1 F1350 X126.195 Y111.505 E46.86693
G0 F7500 X126.195 Y110.883
G1 F1350 X108.785 Y128.293 E47.40741
G0 F7500 X108.163 Y128.293
G1 F1350 X126.195 Y110.261 E47.9672
G0 F7500 X126.195 Y109.639
G1 F1350 X107.541 Y128.293 E48.54631
G0 F7500 X106.918 Y128.293
G1 F1350 X126.195 Y109.016 E49.14475
G0 F7500 X126.195 Y108.394
G1 F1350 X106.296 Y128.293 E49.7625
G0 F7500 X105.674 Y128.293
G1 F1350 X126.195 Y107.772 E50.39956
G0 F7500 X126.195 Y107.15
G1 F1350 X105.052 Y128.293 E51.05593
G0 F7500 X104.607 Y128.115
G1 F1350 X126.017 Y106.705 E51.72059
G0 F7500 X125.395 Y106.705
G1 F1350 X104.607 Y127.492 E52.36593
G0 F7500 X104.607 Y126.87
G1 F1350 X124.773 Y106.705 E52.99195
G0 F7500 X124.15 Y106.705
G1 F1350 X104.607 Y126.248 E53.59865
G0 F7500 X104.607 Y125.626
G1 F1350 X123.528 Y106.705 E54.18604
G0 F7500 X122.906 Y106.705
G1 F1350 X104.607 Y125.003 E54.75411
G0 F7500 X104.607 Y124.381
G1 F1350 X122.284 Y106.705 E55.30287
G0 F7500 X121.661 Y106.705
G1 F1350 X104.607 Y123.759 E55.8323
G0 F7500 X104.607 Y123.136
G1 F1350 X121.039 Y106.705 E56.3424
G0 F7500 X120.417 Y106.705
G1 F1350 X104.607 Y122.514 E56.8332
G0 F7500 X104.607 Y121.892
G1 F1350 X119.795 Y106.705 E57.30468
G0 F7500 X119.172 Y106.705
G1 F1350 X104.607 Y121.27 E57.75685
G0 F7500 X104.607 Y120.647
G1 F1350 X118.55 Y106.705 E58.18968
G0 F7500 X117.928 Y106.705
G1 F1350 X104.607 Y120.025 E58.60321
G0 F7500 X104.607 Y119.403
G1 F1350 X117.306 Y106.705 E58.99743
G0 F7500 X116.683 Y106.705
G1 F1350 X104.607 Y118.781 E59.37232
G0 F7500 X104.607 Y118.158
G1 F1350 X116.061 Y106.705 E59.72788
G0 F7500 X115.439 Y106.705
G1 F1350 X104.607 Y117.536 E60.06414
G0 F7500 X104.607 Y116.914
G1 F1350 X114.817 Y106.705 E60.38109
G0 F7500 X114.194 Y106.705
G1 F1350 X104.607 Y116.292 E60.67871
G0 F7500 X104.607 Y115.669
G1 F1350 X113.572 Y106.705 E60.95701
G0 F7500 X112.95 Y106.705
G1 F1350 X104.607 Y115.047 E61.216
G0 F7500 X104.607 Y114.425
G1 F1350 X112.328 Y106.705 E61.45567
G0 F7500 X111.705 Y106.705
G1 F1350 X104.607 Y113.803 E61.67603
G0 F7500 X104.607 Y113.18
G1 F1350 X111.083 Y106.705 E61.87706
G0 F7500 X110.461 Y106.705
G1 F1350 X104.607 Y112.558 E62.05877
G0 F7500 X104.607 Y111.936
G1 F1350 X109.839 Y106.705 E62.22118
G0 F7500 X109.216 Y106.705
G1 F1350 X104.607 Y111.314 E62.36427
G0 F7500 X104.607 Y110.691
G1 F1350 X108.594 Y106.705 E62.48802
G0 F7500 X107.972 Y106.705
G1 F1350 X104.607 Y110.069 E62.59247
G0 F7500 X104.607 Y109.447
G1 F1350 X107.35 Y106.705 E62.67761
G0 F7500 X106.727 Y106.705
G1 F1350 X104.607 Y108.825 E62.74343
G0 F7500 X104.607 Y108.202
G1 F1350 X106.105 Y106.705 E62.78992
G0 F7500 X105.483 Y106.705
G1 F1350 X104.607 Y107.58 E62.81709
G0 F7500 X104.607 Y106.958
G1 F1350 X104.861 Y106.705 E62.82496
G0 F7500 X104.861 Y105.89
G1 F2700 E57.82496
;MESH:NONMESH
G0 F300 X104.861 Y105.89 Z0.36
G0 F7500 X126.6 Y106.302
G0 X126.802 Y128.9
M117 Time Left 0h19m31s
;LAYER:2
M117 Layer 2 of 15 CE3_ironing_test
M106 S170
;TYPE:WALL-INNER
;MESH:ironing_test.STL
G1 F2700 E62.82496
G1 F1500 X104.002 Y128.9 E63.32546
G1 X104.002 Y106.1 E63.82596
G1 X126.802 Y106.1 E64.32646
G1 X126.802 Y128.9 E64.82696
G0 F9000 X127.242 Y129.34
G1 F1500 X103.562 Y129.34 E65.34677
G1 X103.562 Y105.66 E65.86659
G1 X127.242 Y105.66 E66.38641
G1 X127.242 Y129.34 E66.90622
G0 F9000 X127.682 Y129.78
;TYPE:WALL-OUTER
G1 F1500 X103.122 Y129.78 E67.44536
G1 X103.122 Y105.22 E67.98449
G1 X127.682 Y105.22 E68.52362
G1 X127.682 Y129.78 E69.06276
G0 F9000 X127.392 Y129.49
G0 X126.672 Y128.47
G0 X126.372 Y128.47
;TYPE:SKIN
G1 F1500 X104.432 Y128.47 E69.54438
G1 X104.432 Y106.53 E70.026
G1 X126.372 Y106.53 E70.50762
G1 X126.372 Y128.47 E70.98924
G0 F9000 X126.672 Y128.47
G0 X126.672 Y106.906
G0 X126.195 Y106.906
G1 F1500 X125.995 Y106.705 E70.99546
G0 F9000 X125.373 Y106.705
G1 F1500 X126.195 Y107.528 E71.021
G0 F9000 X126.195 Y108.15
G1 F1500 X124.751 Y106.705 E71.06584
G0 F9000 X124.129 Y106.705
G1 F1500 X126.195 Y108.772 E71.12999
G0 F9000 X126.195 Y109.395
G1 F1500 X123.506 Y106.705 E71.21349
G0 F9000 X122.884 Y106.705
G1 F1500 X126.195 Y110.017 E71.31629
G0 F9000 X126.195 Y110.639
G1 F1500 X122.262 Y106.705 E71.4384
G0 F9000 X121.64 Y106.705
G1 F1500 X126.195 Y111.261 E71.57982
G0 F9000 X126.195 Y111.884
G1 F1500 X121.017 Y106.705 E71.74059
G0 F9000 X120.395 Y106.705
G1 F1500 X126.195 Y112.506 E71.92066
G0 F9000 X126.195 Y113.128
G1 F1500 X119.773 Y106.705 E72.12004
G0 F9000 X119.151 Y106.705
G1 F1500 X126.195 Y113.75 E72.33874
G0 F9000 X126.195 Y114.373
G1 F1500 X118.528 Y106.705 E72.57677
G0 F9000 X117.906 Y106.705
G1 F1500 X126.195 Y114.995 E72.83411
G0 F9000 X126.195 Y115.617
G1 F1500 X117.284 Y106.705 E73.11076
G0 F9000 X116.662 Y106.705
G1 F1500 X126.195 Y116.239 E73.40672
G0 F9000 X126.195 Y116.862
G1 F1500 X116.039 Y106.705 E73.72203
G0 F9000 X115.417 Y106.705
G1 F1500 X126.195 Y117.484 E74.05664
G0 F9000 X126.195 Y118.106
G1 F1500 X114.795 Y106.705 E74.41056
G0 F9000 X114.172 Y106.705
G1 F1500 X126.195 Y118.728 E74.78381
G0 F9000 X126.195 Y119.351
G1 F1500 X113.55 Y106.705 E75.17638
G0 F9000 X112.928 Y106.705
G1 F1500 X126.195 Y119.973 E75.58826
G0 F9000 X126.195 Y120.595
G1 F1500 X112.306 Y106.705 E76.01945
G0 F9000 X111.683 Y106.705
G1 F1500 X126.195 Y121.217 E76.46997
G0 F9000 X126.195 Y121.84
G1 F1500 X111.061 Y106.705 E76.93981
G0 F9000 X110.439 Y106.705
G1 F1500 X126.195 Y122.462 E77.42896
G0 F9000 X126.195 Y123.084
G1 F1500 X109.817 Y106.705 E77.93742
G0 F9000 X109.194 Y106.705
G1 F1500 X126.195 Y123.706 E78.4652
G0 F9000 X126.195 Y124.329
G1 F1500 X108.572 Y106.705 E79.01231
G0 F9000 X107.95 Y106.705
G1 F1500 X126.195 Y124.951 E79.57873
G0 F9000 X126.195 Y125.573
G1 F1500 X107.328 Y106.705 E80.16446
G0 F9000 X106.705 Y106.705
G1 F1500 X126.195 Y126.195 E80.76952
G0 F9000 X126.195 Y126.818
G1 F1500 X106.083 Y106.705 E81.3939
G0 F9000 X105.461 Y106.705
G1 F1500 X126.195 Y127.44 E82.03759
G0 F9000 X126.195 Y128.062
G1 F1500 X104.839 Y106.705 E82.70059
G0 F9000 X104.607 Y107.096
G1 F1500 X125.804 Y128.293 E83.35864
G0 F9000 X125.181 Y128.293
G1 F1500 X104.607 Y107.719 E83.99734
G0 F9000 X104.607 Y108.341
G1 F1500 X124.559 Y128.293 E84.61674
G0 F9000 X123.937 Y128.293
G1 F1500 X104.607 Y108.963 E85.21683
G0 F9000 X104.607 Y109.585
G1 F1500 X123.315 Y128.293 E85.79761
G0 F9000 X122.692 Y128.293
G1 F1500 X104.607 Y110.208 E86.35904
G0 F9000 X104.607 Y110.83
G1 F1500 X122.07 Y128.293 E86.90117
G0 F9000 X121.448 Y128.293
G1 F1500 X104.607 Y111.452 E87.42399
G0 F9000 X104.607 Y112.075
G1 F1500 X120.826 Y128.293 E87.92748
G0 F9000 X120.203 Y128.293
G1 F1500 X104.607 Y112.697 E88.41165
G0 F9000 X104.607 Y113.319
G1 F1500 X119.581 Y128.293 E88.87651
G0 F9000 X118.959 Y128.293
G1 F1500 X104.607 Y113.941 E89.32206
G0 F9000 X104.607 Y114.564
G1 F1500 X118.337 Y128.293 E89.74828
G0 F9000 X117.714 Y128.293
G1 F1500 X104.607 Y115.186 E90.15518
G0 F9000 X104.607 Y115.808
G1 F1500 X117.092 Y128.293 E90.54277
G0 F9000 X116.47 Y128.293
G1 F1500 X104.607 Y116.43 E90.91105
G0 F9000 X104.607 Y117.053
G1 F1500 X115.848 Y128.293 E91.26
G0 F9000 X115.225 Y128.293
G1 F1500 X104.607 Y117.675 E91.58963
G0 F9000 X104.607 Y118.297
G1 F1500 X114.603 Y128.293 E91.89995
G0 F9000 X113.981 Y128.293
G1 F1500 X104.607 Y118.919 E92.19096
G0 F9000 X104.607 Y119.542
