;FLAVOR:Marlin
M117 Time Left 0h17m22s
;Filament used: 0.472149m
;Layer height: 0.12
;MINX:149.06
;MINY:105.22
;MINZ:0.12
;MAXX:173.84
;MAXY:130
;MAXZ:2.12
;POSTPROCESSED
;Generated with Cura_SteamEngine 4.5.0
M82 ;absolute extrusion mode
; Ender 3 Custom Start G-code
G92 E0 ; Reset Extruder
G1 Z2.0 F3000 ; Move Z Axis up little to prevent scratching of Heat Bed

;*** Start Preheating ***
M140 S55 ; start preheating the bed
M104 S200 ﻿T0 ; start preheating hotend
G28 ; home
M190 S55 ; heat to Cura Bed setting
M109 S200 ﻿T0 ; heat to Cura Hotend
;*** End Preheating ***

G1 X0.1 Y20 Z0.3 F5000.0 ; Move to start position
G1 X0.1 Y200.0 Z0.3 F1500.0 E15 ; Draw the first line
G1 X0.4 Y200.0 Z0.3 F5000.0 ; Move to side a little
G1 X0.4 Y20 Z0.3 F1500.0 E30 ; Draw the second line


G92 E0 ; Reset Extruder
G1 Z2.0 F3000 ; Move Z Axis up little to prevent scratching of Heat Bed
G1 X5 Y20 Z0.3 F5000.0 ; Move over to prevent blob squish
G92 E0
G92 E0
G1 F2700 E-5
;LAYER_COUNT:16
;LAYER:0
M117 Layer 0 of 15 CE3_ironing_test
M107
G1 F300 Z0.32
;MESH:ironing_test.STL
G0 F6000 X172.96 Y128.9 Z0.32
;TYPE:WALL-INNER
G1 F300 Z0.12
G1 F2700 E0
G1 F1200 X150.16 Y128.9 E0.5005
G1 X150.16 Y106.1 E1.001
G1 X172.96 Y106.1 E1.5015
G1 X172.96 Y128.9 E2.00199
G0 F6000 X173.4 Y129.34
G1 F1200 X149.72 Y129.34 E2.52181
G1 X149.72 Y105.66 E3.04163
G1 X173.4 Y105.66 E3.56144
G1 X173.4 Y129.34 E4.08126
G0 F6000 X173.84 Y129.78
;TYPE:WALL-OUTER
G1 F1200 X149.28 Y129.78 E4.62039
G1 X149.28 Y105.22 E5.15953
G1 X173.84 Y105.22 E5.69866
G1 X173.84 Y129.78 E6.23779
G0 F6000 X173.55 Y129.49
G0 X172.83 Y128.47
G0 X172.53 Y128.47
;TYPE:SKIN
G1 F1200 X150.59 Y128.47 E6.71941
G1 X150.59 Y106.53 E7.20103
G1 X172.53 Y106.53 E7.68265
G1 X172.53 Y128.47 E8.16427
G0 F6000 X172.83 Y128.47
G0 X172.83 Y107.017
G0 X172.353 Y107.017
G1 F1200 X172.042 Y106.705 E8.17394
G0 F6000 X171.42 Y106.705
G1 F1200 X172.353 Y107.639 E8.20292
G0 F6000 X172.353 Y108.261
G1 F1200 X170.798 Y106.705 E8.25121
G0 F6000 X170.175 Y106.705
G1 F1200 X172.353 Y108.883 E8.31883
G0 F6000 X172.353 Y109.506
G1 F1200 X169.553 Y106.705 E8.40577
G0 F6000 X168.931 Y106.705
G1 F1200 X172.353 Y110.128 E8.51202
G0 F6000 X172.353 Y110.75
G1 F1200 X168.309 Y106.705 E8.63757
G0 F6000 X167.686 Y106.705
G1 F1200 X172.353 Y111.372 E8.78246
G0 F6000 X172.353 Y111.995
G1 F1200 X167.064 Y106.705 E8.94667
G0 F6000 X166.442 Y106.705
G1 F1200 X172.353 Y112.617 E9.13019
G0 F6000 X172.353 Y113.239
G1 F1200 X165.82 Y106.705 E9.33302
G0 F6000 X165.197 Y106.705
G1 F1200 X172.353 Y113.861 E9.55517
G0 F6000 X172.353 Y114.484
G1 F1200 X164.575 Y106.705 E9.79665
G0 F6000 X163.953 Y106.705
G1 F1200 X172.353 Y115.106 E10.05744
G0 F6000 X172.353 Y115.728
G1 F1200 X163.331 Y106.705 E10.33753
G0 F6000 X162.708 Y106.705
G1 F1200 X172.353 Y116.35 E10.63696
G0 F6000 X172.353 Y116.973
G1 F1200 X162.086 Y106.705 E10.9557
G0 F6000 X161.464 Y106.705
G1 F1200 X172.353 Y117.595 E11.29376
G0 F6000 X172.353 Y118.217
G1 F1200 X160.842 Y106.705 E11.65113
G0 F6000 X160.219 Y106.705
G1 F1200 X172.353 Y118.839 E12.02782
G0 F6000 X172.353 Y119.462
G1 F1200 X159.597 Y106.705 E12.42384
G0 F6000 X158.975 Y106.705
G1 F1200 X172.353 Y120.084 E12.83917
G0 F6000 X172.353 Y120.706
G1 F1200 X158.353 Y106.705 E13.2738
G0 F6000 X157.73 Y106.705
G1 F1200 X172.353 Y121.328 E13.72777
G0 F6000 X172.353 Y121.951
G1 F1200 X157.108 Y106.705 E14.20105
G0 F6000 X156.486 Y106.705
G1 F1200 X172.353 Y122.573 E14.69365
G0 F6000 X172.353 Y123.195
G1 F1200 X155.864 Y106.705 E15.20556
G0 F6000 X155.241 Y106.705
G1 F1200 X172.353 Y123.817 E15.73679
G0 F6000 X172.353 Y124.44
G1 F1200 X154.619 Y106.705 E16.28734
G0 F6000 X153.997 Y106.705
G1 F1200 X172.353 Y125.062 E16.85721
G0 F6000 X172.353 Y125.684
G1 F1200 X153.374 Y106.705 E17.4464
G0 F6000 X152.752 Y106.705
G1 F1200 X172.353 Y126.306 E18.0549
G0 F6000 X172.353 Y126.929
G1 F1200 X152.13 Y106.705 E18.68273
G0 F6000 X151.508 Y106.705
G1 F1200 X172.353 Y127.551 E19.32986
G0 F6000 X172.353 Y128.173
G1 F1200 X150.885 Y106.705 E19.99632
G0 F6000 X150.765 Y107.207
G1 F1200 X171.851 Y128.293 E20.65093
G0 F6000 X171.229 Y128.293
G1 F1200 X150.765 Y107.83 E21.2862
G0 F6000 X150.765 Y108.452
G1 F1200 X170.607 Y128.293 E21.90217
G0 F6000 X169.984 Y128.293
G1 F1200 X150.765 Y109.074 E22.49881
G0 F6000 X150.765 Y109.697
G1 F1200 X169.362 Y128.293 E23.07613
G0 F6000 X168.74 Y128.293
G1 F1200 X150.765 Y110.319 E23.63414
G0 F6000 X150.765 Y110.941
G1 F1200 X168.118 Y128.293 E24.17283
G0 F6000 X167.495 Y128.293
G1 F1200 X150.765 Y111.563 E24.69221
G0 F6000 X150.765 Y112.186
G1 F1200 X166.873 Y128.293 E25.19225
G0 F6000 X166.251 Y128.293
G1 F1200 X150.765 Y112.808 E25.67299
G0 F6000 X150.765 Y113.43
G1 F1200 X165.629 Y128.293 E26.13442
G0 F6000 X165.006 Y128.293
G1 F1200 X150.765 Y114.052 E26.57652
G0 F6000 X150.765 Y114.675
G1 F1200 X164.384 Y128.293 E26.9993
G0 F6000 X163.762 Y128.293
G1 F1200 X150.765 Y115.297 E27.40277
G0 F6000 X150.765 Y115.919
G1 F1200 X163.14 Y128.293 E27.78693
G0 F6000 X162.517 Y128.293
G1 F1200 X150.765 Y116.541 E28.15176
G0 F6000 X150.765 Y117.164
G1 F1200 X161.895 Y128.293 E28.49727
G0 F6000 X161.273 Y128.293
G1 F1200 X150.765 Y117.786 E28.82347
G0 F6000 X150.765 Y118.408
G1 F1200 X160.651 Y128.293 E29.13036
G0 F6000 X160.028 Y128.293
G1 F1200 X150.765 Y119.03 E29.41792
G0 F6000 X150.765 Y119.653
G1 F1200 X159.406 Y128.293 E29.68616
G0 F6000 X158.784 Y128.293
G1 F1200 X150.765 Y120.275 E29.93509
G0 F6000 X150.765 Y120.897
G1 F1200 X158.162 Y128.293 E30.16471
G0 F6000 X157.539 Y128.293
G1 F1200 X150.765 Y121.519 E30.375
G0 F6000 X150.765 Y122.142
G1 F1200 X156.917 Y128.293 E30.56597
G0 F6000 X156.295 Y128.293
G1 F1200 X150.765 Y122.764 E30.73763
G0 F6000 X150.765 Y123.386
G1 F1200 X155.673 Y128.293 E30.88998
G0 F6000 X155.05 Y128.293
G1 F1200 X150.765 Y124.008 E31.02301
G0 F6000 X150.765 Y124.631
G1 F1200 X154.428 Y128.293 E31.13671
G0 F6000 X153.806 Y128.293
G1 F1200 X150.765 Y125.253 E31.2311
G0 F6000 X150.765 Y125.875
G1 F1200 X153.184 Y128.293 E31.30618
G0 F6000 X152.561 Y128.293
G1 F1200 X150.765 Y126.497 E31.36193
G0 F6000 X150.765 Y127.12
G1 F1200 X151.939 Y128.293 E31.39836
G0 F6000 X151.317 Y128.293
G1 F1200 X150.765 Y127.742 E31.41549
M104 S200
G0 F6000 X149.95 Y127.742
;MESH:NONMESH
G0 F300 X149.95 Y127.742 Z0.24
G0 F6000 X150.362 Y128.698
G0 X172.96 Y128.9
M117 Time Left 0h15m59s
;LAYER:1
M117 Layer 1 of 15 CE3_ironing_test
M140 S55
M106 S85
;TYPE:WALL-INNER
;MESH:ironing_test.STL
G1 F1350 X150.16 Y128.9 E31.91598
G1 X150.16 Y106.1 E32.41648
G1 X172.96 Y106.1 E32.91698
G1 X172.96 Y128.9 E33.41748
G0 F7500 X173.4 Y129.34
G1 F1350 X149.72 Y129.34 E33.9373
G1 X149.72 Y105.66 E34.45711
G1 X173.4 Y105.66 E34.97693
G1 X173.4 Y129.34 E35.49674
G0 F7500 X173.84 Y129.78
;TYPE:WALL-OUTER
G1 F1350 X149.28 Y129.78 E36.03588
G1 X149.28 Y105.22 E36.57501
G1 X173.84 Y105.22 E37.11414
G1 X173.84 Y129.78 E37.65328
G0 F7500 X173.55 Y129.49
G0 X172.83 Y128.47
G0 X172.53 Y128.47
;TYPE:SKIN
G1 F1350 X150.59 Y128.47 E38.1349
G1 X150.59 Y106.53 E38.61652
G1 X172.53 Y106.53 E39.09814
G1 X172.53 Y128.47 E39.57976
G0 F7500 X172.254 Y128.293
G1 F1350 X172.353 Y128.194 E39.58283
G0 F7500 X172.353 Y127.572
G1 F1350 X171.632 Y128.293 E39.60521
G0 F7500 X171.01 Y128.293
G1 F1350 X172.353 Y126.95 E39.64691
G0 F7500 X172.353 Y126.328
G1 F1350 X170.387 Y128.293 E39.70792
G0 F7500 X169.765 Y128.293
G1 F1350 X172.353 Y125.705 E39.78827
G0 F7500 X172.353 Y125.083
G1 F1350 X169.143 Y128.293 E39.88792
G0 F7500 X168.521 Y128.293
G1 F1350 X172.353 Y124.461 E40.00688
G0 F7500 X172.353 Y123.839
G1 F1350 X167.898 Y128.293 E40.14517
G0 F7500 X167.276 Y128.293
G1 F1350 X172.353 Y123.216 E40.30278
G0 F7500 X172.353 Y122.594
G1 F1350 X166.654 Y128.293 E40.4797
G0 F7500 X166.032 Y128.293
G1 F1350 X172.353 Y121.972 E40.67593
G0 F7500 X172.353 Y121.35
G1 F1350 X165.409 Y128.293 E40.89149
G0 F7500 X164.787 Y128.293
G1 F1350 X172.353 Y120.727 E41.12637
G0 F7500 X172.353 Y120.105
G1 F1350 X164.165 Y128.293 E41.38056
G0 F7500 X163.543 Y128.293
G1 F1350 X172.353 Y119.483 E41.65407
G0 F7500 X172.353 Y118.861
G1 F1350 X162.92 Y128.293 E41.94689
G0 F7500 X162.298 Y128.293
G1 F1350 X172.353 Y118.238 E42.25904
G0 F7500 X172.353 Y117.616
G1 F1350 X161.676 Y128.293 E42.5905
G0 F7500 X161.054 Y128.293
G1 F1350 X172.353 Y116.994 E42.94127
G0 F7500 X172.353 Y116.372
G1 F1350 X160.431 Y128.293 E43.31137
G0 F7500 X159.809 Y128.293
G1 F1350 X172.353 Y115.749 E43.70079
G0 F7500 X172.353 Y115.127
G1 F1350 X159.187 Y128.293 E44.10952
G0 F7500 X158.565 Y128.293
G1 F1350 X172.353 Y114.505 E44.53756
G0 F7500 X172.353 Y113.883
G1 F1350 X157.942 Y128.293 E44.98493
G0 F7500 X157.32 Y128.293
G1 F1350 X172.353 Y113.26 E45.45162
G0 F7500 X172.353 Y112.638
G1 F1350 X156.698 Y128.293 E45.93762
G0 F7500 X156.076 Y128.293
G1 F1350 X172.353 Y112.016 E46.44292
G0 F7500 X172.353 Y111.394
G1 F1350 X155.453 Y128.293 E46.96756
G0 F7500 X154.831 Y128.293
G1 F1350 X172.353 Y110.771 E47.51152
G0 F7500 X172.353 Y110.149
G1 F1350 X154.209 Y128.293 E48.07479
G0 F7500 X153.587 Y128.293
G1 F1350 X172.353 Y109.527 E48.65737
G0 F7500 X172.353 Y108.905
G1 F1350 X152.964 Y128.293 E49.25927
G0 F7500 X152.342 Y128.293
G1 F1350 X172.353 Y108.282 E49.8805
G0 F7500 X172.353 Y107.66
G1 F1350 X151.72 Y128.293 E50.52104
G0 F7500 X151.098 Y128.293
G1 F1350 X172.353 Y107.038 E51.18089
G0 F7500 X172.063 Y106.705
G1 F1350 X150.765 Y128.004 E51.84208
G0 F7500 X150.765 Y127.381
G1 F1350 X171.441 Y106.705 E52.48396
G0 F7500 X170.819 Y106.705
G1 F1350 X150.765 Y126.759 E53.10652
G0 F7500 X150.765 Y126.137
G1 F1350 X170.197 Y106.705 E53.70978
G0 F7500 X169.574 Y106.705
G1 F1350 X150.765 Y125.514 E54.29369
G0 F7500 X150.765 Y124.892
G1 F1350 X168.952 Y106.705 E54.85829
G0 F7500 X168.33 Y106.705
G1 F1350 X150.765 Y124.27 E55.40359
G0 F7500 X150.765 Y123.648
G1 F1350 X167.708 Y106.705 E55.92957
G0 F7500 X167.085 Y106.705
G1 F1350 X150.765 Y123.025 E56.43622
G0 F7500 X150.765 Y122.403
G1 F1350 X166.463 Y106.705 E56.92355
G0 F7500 X165.841 Y106.705
G1 F1350 X150.765 Y121.781 E57.39158
G0 F7500 X150.765 Y121.159
G1 F1350 X165.219 Y106.705 E57.84029
G0 F7500 X164.596 Y106.705
G1 F1350 X150.765 Y120.536 E58.26967
G0 F7500 X150.765 Y119.914
G1 F1350 X163.974 Y106.705 E58.67973
G0 F7500 X163.352 Y106.705
G1 F1350 X150.765 Y119.292 E59.07049
G0 F7500 X150.765 Y118.67
G1 F1350 X162.73 Y106.705 E59.44193
G0 F7500 X162.107 Y106.705
G1 F1350 X150.765 Y118.047 E59.79404
G0 F7500 X150.765 Y117.425
G1 F1350 X161.485 Y106.705 E60.12684
G0 F7500 X160.863 Y106.705
G1 F1350 X150.765 Y116.803 E60.44032
G0 F7500 X150.765 Y116.181
G1 F1350 X160.241 Y106.705 E60.7345
G0 F7500 X159.618 Y106.705
G1 F1350 X150.765 Y115.558 E61.00933
G0 F7500 X150.765 Y114.936
G1 F1350 X158.996 Y106.705 E61.26486
G0 F7500 X158.374 Y106.705
G1 F1350 X150.765 Y114.314 E61.50108
G0 F7500 X150.765 Y113.692
G1 F1350 X157.751 Y106.705 E61.71797
G0 F7500 X157.129 Y106.705
G1 F1350 X150.765 Y113.069 E61.91553
G0 F7500 X150.765 Y112.447
G1 F1350 X156.507 Y106.705 E62.09379
G0 F7500 X155.885 Y106.705
G1 F1350 X150.765 Y111.825 E62.25274
G0 F7500 X150.765 Y111.203
G1 F1350 X155.262 Y106.705 E62.39236
G0 F7500 X154.64 Y106.705
G1 F1350 X150.765 Y110.58 E62.51266
G0 F7500 X150.765 Y109.958
G1 F1350 X154.018 Y106.705 E62.61365
G0 F7500 X153.396 Y106.705
G1 F1350 X150.765 Y109.336 E62.69532
G0 F7500 X150.765 Y108.714
G1 F1350 X152.773 Y106.705 E62.75768
G0 F7500 X152.151 Y106.705
G1 F1350 X150.765 Y108.091 E62.8007
G0 F7500 X150.765 Y107.469
G1 F1350 X151.529 Y106.705 E62.82442
G0 F7500 X150.907 Y106.705
G1 F1350 X150.765 Y106.847 E62.82883
G0 F7500 X149.95 Y106.847
G1 F2700 E57.82883
;MESH:NONMESH
G0 F300 X149.95 Y106.847 Z0.36
G0 F7500 X150.362 Y128.698
G0 X172.96 Y128.9
M117 Time Left 0h14m48s
;LAYER:2
M117 Layer 2 of 15 CE3_ironing_test
M106 S170
;TYPE:WALL-INNER
;MESH:ironing_test.STL
G1 F2700 E62.82883
G1 F1500 X150.16 Y128.9 E63.32933
G1 X150.16 Y106.1 E63.82983
G1 X172.96 Y106.1 E64.33033
G1 X172.96 Y128.9 E64.83082
G0 F9000 X173.4 Y129.34
G1 F1500 X149.72 Y129.34 E65.35064
G1 X149.72 Y105.66 E65.87046
G1 X173.4 Y105.66 E66.39027
G1 X173.4 Y129.34 E66.91009
G0 F9000 X173.84 Y129.78
;TYPE:WALL-OUTER
G1 F1500 X149.28 Y129.78 E67.44922
G1 X149.28 Y105.22 E67.98835
G1 X173.84 Y105.22 E68.52749
G1 X173.84 Y129.78 E69.06662
G0 F9000 X173.55 Y129.49
G0 X172.83 Y128.47
G0 X172.53 Y128.47
;TYPE:SKIN
G1 F1500 X150.59 Y128.47 E69.54824
G1 X150.59 Y106.53 E70.02986
G1 X172.53 Y106.53 E70.51148
G1 X172.53 Y128.47 E70.9931
G0 F9000 X172.83 Y128.47
G0 X172.83 Y107.017
G0 X172.353 Y107.017
G1 F1500 X172.042 Y106.705 E71.00277
G0 F9000 X171.42 Y106.705
G1 F1500 X172.353 Y107.639 E71.03175
G0 F9000 X172.353 Y108.261
G1 F1500 X170.798 Y106.705 E71.08004
G0 F9000 X170.175 Y106.705
G1 F1500 X172.353 Y108.883 E71.14766
G0 F9000 X172.353 Y109.506
G1 F1500 X169.553 Y106.705 E71.2346
G0 F9000 X168.931 Y106.705
G1 F1500 X172.353 Y110.128 E71.34085
G0 F9000 X172.353 Y110.75
G1 F1500 X168.309 Y106.705 E71.4664
G0 F9000 X167.686 Y106.705
G1 F1500 X172.353 Y111.372 E71.61129
G0 F9000 X172.353 Y111.995
G1 F1500 X167.064 Y106.705 E71.7755
G0 F9000 X166.442 Y106.705
G1 F1500 X172.353 Y112.617 E71.95902
G0 F9000 X172.353 Y113.239
G1 F1500 X165.82 Y106.705 E72.16184
G0 F9000 X165.197 Y106.705
G1 F1500 X172.353 Y113.861 E72.384
G0 F9000 X172.353 Y114.484
G1 F1500 X164.575 Y106.705 E72.62548
G0 F9000 X163.953 Y106.705
G1 F1500 X172.353 Y115.106 E72.88627
G0 F9000 X172.353 Y115.728
G1 F1500 X163.331 Y106.705 E73.16636
G0 F9000 X162.708 Y106.705
G1 F1500 X172.353 Y116.35 E73.46579
G0 F9000 X172.353 Y116.973
G1 F1500 X162.086 Y106.705 E73.78453
G0 F9000 X161.464 Y106.705
G1 F1500 X172.353 Y117.595 E74.12259
G0 F9000 X172.353 Y118.217
G1 F1500 X160.842 Y106.705 E74.47996
G0 F9000 X160.219 Y106.705
G1 F1500 X172.353 Y118.839 E74.85665
G0 F9000 X172.353 Y119.462
G1 F1500 X159.597 Y106.705 E75.25267
G0 F9000 X158.975 Y106.705
G1 F1500 X172.353 Y120.084 E75.668
G0 F9000 X172.353 Y120.706
G1 F1500 X158.353 Y106.705 E76.10263
G0 F9000 X157.73 Y106.705
G1 F1500 X172.353 Y121.328 E76.5566
G0 F9000 X172.353 Y121.951
G1 F1500 X157.108 Y106.705 E77.02988
G0 F9000 X156.486 Y106.705
G1 F1500 X172.353 Y122.573 E77.52248
G0 F9000 X172.353 Y123.195
G1 F1500 X155.864 Y106.705 E78.03439
G0 F9000 X155.241 Y106.705
G1 F1500 X172.353 Y123.817 E78.56562
G0 F9000 X172.353 Y124.44
G1 F1500 X154.619 Y106.705 E79.11617
G0 F9000 X153.997 Y106.705
G1 F1500 X172.353 Y125.062 E79.68604
G0 F9000 X172.353 Y125.684
G1 F1500 X153.374 Y106.705 E80.27523
G0 F9000 X152.752 Y106.705
G1 F1500 X172.353 Y126.306 E80.88373
G0 F9000 X172.353 Y126.929
G1 F1500 X152.13 Y106.705 E81.51156
G0 F9000 X151.508 Y106.705
G1 F1500 X172.353 Y127.551 E82.15869
G0 F9000 X172.353 Y128.173
G1 F1500 X150.885 Y106.705 E82.82515
G0 F9000 X150.765 Y107.207
G1 F1500 X171.851 Y128.293 E83.47976
G0 F9000 X171.229 Y128.293
G1 F1500 X150.765 Y107.83 E84.11503
G0 F9000 X150.765 Y108.452
G1 F1500 X170.607 Y128.293 E84.731
G0 F9000 X169.984 Y128.293
G1 F1500 X150.765 Y109.074 E85.32764
G0 F9000 X150.765 Y109.697
G1 F1500 X169.362 Y128.293 E85.90496
G0 F9000 X168.74 Y128.293
G1 F1500 X150.765 Y110.319 E86.46296
G0 F9000 X150.765 Y110.941
G1 F1500 X168.118 Y128.293 E87.00166
G0 F9000 X167.495 Y128.293
G1 F1500 X150.765 Y111.563 E87.52103
G0 F9000 X150.765 Y112.186
G1 F1500 X166.873 Y128.293 E88.02108
G0 F9000 X166.251 Y128.293
G1 F1500 X150.765 Y112.808 E88.50182
G0 F9000 X150.765 Y113.43
G1 F1500 X165.629 Y128.293 E88.96325
G0 F9000 X165.006 Y128.293
G1 F1500 X150.765 Y114.052 E89.40535
G0 F9000 X150.765 Y114.675
G1 F1500 X164.384 Y128.293 E89.82813
G0 F9000 X163.762 Y128.293
G1 F1500 X150.765 Y115.297 E90.2316
G0 F9000 X150.765 Y115.919
G1 F1500 X163.14 Y128.293 E90.61576
G0 F9000 X162.517 Y128.293
G1 F1500 X150.765 Y116.541 E90.98059
G0 F9000 X150.765 Y117.164
G1 F1500 X161.895 Y128.293 E91.3261
G0 F9000 X161.273 Y128.293
G1 F1500 X150.765 Y117.786 E91.6523
G0 F9000 X150.765 Y118.408
G1 F1500 X160.651 Y128.293 E91.95919
G0 F9000 X160.028 Y128.293
G1 F1500 X150.765 Y119.03 E92.24675
G0 F9000 X150.765 Y119.653
G1 F1500 X159.406 Y128.293 E92.51499
