;FLAVOR:Marlin
M117 Time Left 0h16m07s
;Filament used: 0.462435m
;Layer height: 0.12
;MINX:39.463
;MINY:105.22
;MINZ:0.12
;MAXX:64.023
;MAXY:129.78
;MAXZ:1.92
;POSTPROCESSED
;Generated with Cura_SteamEngine 4.5.0
M82 ;absolute extrusion mode
; Ender 3 Custom Start G-code
G92 E0 ; Reset Extruder
G1 Z2.0 F3000 ; Move Z Axis up little to prevent scratching of Heat Bed

;*** Start Preheating ***
M140 S55 ; start preheating the bed
M104 S200 ﻿T0 ; start preheating hotend
G28 ; home
M190 S55 ; heat to Cura Bed setting
M109 S200 ﻿T0 ; heat to Cura Hotend
;*** End Preheating ***

G1 X0.1 Y20 Z0.3 F5000.0 ; Move to start position
G1 X0.1 Y200.0 Z0.3 F1500.0 E15 ; Draw the first line
G1 X0.4 Y200.0 Z0.3 F5000.0 ; Move to side a little
G1 X0.4 Y20 Z0.3 F1500.0 E30 ; Draw the second line


G92 E0 ; Reset Extruder
G1 Z2.0 F3000 ; Move Z Axis up little to prevent scratching of Heat Bed
G1 X5 Y20 Z0.3 F5000.0 ; Move over to prevent blob squish
G92 E0
G92 E0
G1 F2700 E-5
;LAYER_COUNT:16
;LAYER:0
M117 Layer 0 of 15 CE3_ironing_test
M107
G1 F300 Z0.32
;MESH:ironing_test.STL
G0 F6000 X63.143 Y128.9 Z0.32
;TYPE:WALL-INNER
G1 F300 Z0.12
G1 F2700 E0
G1 F1200 X40.343 Y128.9 E0.5005
G1 X40.343 Y106.1 E1.001
G1 X63.143 Y106.1 E1.5015
G1 X63.143 Y128.9 E2.00199
G0 F6000 X63.583 Y129.34
G1 F1200 X39.903 Y129.34 E2.52181
G1 X39.903 Y105.66 E3.04163
G1 X63.583 Y105.66 E3.56144
G1 X63.583 Y129.34 E4.08126
G0 F6000 X64.023 Y129.78
;TYPE:WALL-OUTER
G1 F1200 X39.463 Y129.78 E4.62039
G1 X39.463 Y105.22 E5.15953
G1 X64.023 Y105.22 E5.69866
G1 X64.023 Y129.78 E6.23779
G0 F6000 X63.733 Y129.49
G0 X63.013 Y128.47
G0 X62.713 Y128.47
;TYPE:SKIN
G1 F1200 X40.773 Y128.47 E6.71941
G1 X40.773 Y106.53 E7.20103
G1 X62.713 Y106.53 E7.68265
G1 X62.713 Y128.47 E8.16427
G0 F6000 X63.013 Y128.47
G0 X63.013 Y107.338
G0 X62.536 Y107.338
G1 F1200 X61.902 Y106.705 E8.18394
G0 F6000 X61.28 Y106.705
G1 F1200 X62.536 Y107.961 E8.22293
G0 F6000 X62.536 Y108.583
G1 F1200 X60.658 Y106.705 E8.28123
G0 F6000 X60.036 Y106.705
G1 F1200 X62.536 Y109.205 E8.35884
G0 F6000 X62.536 Y109.827
G1 F1200 X59.413 Y106.705 E8.45578
G0 F6000 X58.791 Y106.705
G1 F1200 X62.536 Y110.45 E8.57204
G0 F6000 X62.536 Y111.072
G1 F1200 X58.169 Y106.705 E8.70761
G0 F6000 X57.547 Y106.705
G1 F1200 X62.536 Y111.694 E8.86249
G0 F6000 X62.536 Y112.316
G1 F1200 X56.924 Y106.705 E9.0367
G0 F6000 X56.302 Y106.705
G1 F1200 X62.536 Y112.939 E9.23023
G0 F6000 X62.536 Y113.561
G1 F1200 X55.68 Y106.705 E9.44307
G0 F6000 X55.058 Y106.705
G1 F1200 X62.536 Y114.183 E9.67522
G0 F6000 X62.536 Y114.805
G1 F1200 X54.435 Y106.705 E9.92669
G0 F6000 X53.813 Y106.705
G1 F1200 X62.536 Y115.428 E10.19749
G0 F6000 X62.536 Y116.05
G1 F1200 X53.191 Y106.705 E10.4876
G0 F6000 X52.569 Y106.705
G1 F1200 X62.536 Y116.672 E10.79702
G0 F6000 X62.536 Y117.294
G1 F1200 X51.946 Y106.705 E11.12577
G0 F6000 X51.324 Y106.705
G1 F1200 X62.536 Y117.917 E11.47384
G0 F6000 X62.536 Y118.539
G1 F1200 X50.702 Y106.705 E11.84121
G0 F6000 X50.08 Y106.705
G1 F1200 X62.536 Y119.161 E12.2279
G0 F6000 X62.536 Y119.783
G1 F1200 X49.457 Y106.705 E12.63392
G0 F6000 X48.835 Y106.705
G1 F1200 X62.536 Y120.406 E13.05926
G0 F6000 X62.536 Y121.028
G1 F1200 X48.213 Y106.705 E13.5039
G0 F6000 X47.591 Y106.705
G1 F1200 X62.536 Y121.65 E13.96786
G0 F6000 X62.536 Y122.272
G1 F1200 X46.968 Y106.705 E14.45115
G0 F6000 X46.346 Y106.705
G1 F1200 X62.536 Y122.895 E14.95375
G0 F6000 X62.536 Y123.517
G1 F1200 X45.724 Y106.705 E15.47567
G0 F6000 X45.102 Y106.705
G1 F1200 X62.536 Y124.139 E16.0169
G0 F6000 X62.536 Y124.761
G1 F1200 X44.479 Y106.705 E16.57745
G0 F6000 X43.857 Y106.705
G1 F1200 X62.536 Y125.384 E17.15733
G0 F6000 X62.536 Y126.006
G1 F1200 X43.235 Y106.705 E17.75652
G0 F6000 X42.613 Y106.705
G1 F1200 X62.536 Y126.628 E18.37502
G0 F6000 X62.536 Y127.25
G1 F1200 X41.99 Y106.705 E19.01284
G0 F6000 X41.368 Y106.705
G1 F1200 X62.536 Y127.873 E19.66999
G0 F6000 X62.334 Y128.293
G1 F1200 X40.948 Y106.907 E20.3339
G0 F6000 X40.948 Y107.529
G1 F1200 X61.712 Y128.293 E20.97851
G0 F6000 X61.089 Y128.293
G1 F1200 X40.948 Y108.151 E21.60379
G0 F6000 X40.948 Y108.774
G1 F1200 X60.467 Y128.293 E22.20974
G0 F6000 X59.845 Y128.293
G1 F1200 X40.948 Y109.396 E22.79639
G0 F6000 X40.948 Y110.018
G1 F1200 X59.223 Y128.293 E23.36372
G0 F6000 X58.6 Y128.293
G1 F1200 X40.948 Y110.64 E23.91173
G0 F6000 X40.948 Y111.263
G1 F1200 X57.978 Y128.293 E24.44042
G0 F6000 X57.356 Y128.293
G1 F1200 X40.948 Y111.885 E24.9498
G0 F6000 X40.948 Y112.507
G1 F1200 X56.734 Y128.293 E25.43986
G0 F6000 X56.111 Y128.293
G1 F1200 X40.948 Y113.13 E25.91059
G0 F6000 X40.948 Y113.752
G1 F1200 X55.489 Y128.293 E26.362
G0 F6000 X54.867 Y128.293
G1 F1200 X40.948 Y114.374 E26.79411
G0 F6000 X40.948 Y114.996
G1 F1200 X54.244 Y128.293 E27.20689
G0 F6000 X53.622 Y128.293
G1 F1200 X40.948 Y115.619 E27.60035
G0 F6000 X40.948 Y116.241
G1 F1200 X53 Y128.293 E27.9745
G0 F6000 X52.378 Y128.293
G1 F1200 X40.948 Y116.863 E28.32933
G0 F6000 X40.948 Y117.485
G1 F1200 X51.755 Y128.293 E28.66485
G0 F6000 X51.133 Y128.293
G1 F1200 X40.948 Y118.108 E28.98103
G0 F6000 X40.948 Y118.73
G1 F1200 X50.511 Y128.293 E29.27791
G0 F6000 X49.889 Y128.293
G1 F1200 X40.948 Y119.352 E29.55548
G0 F6000 X40.948 Y119.974
G1 F1200 X49.266 Y128.293 E29.81372
G0 F6000 X48.644 Y128.293
G1 F1200 X40.948 Y120.597 E30.05264
G0 F6000 X40.948 Y121.219
G1 F1200 X48.022 Y128.293 E30.27225
G0 F6000 X47.4 Y128.293
G1 F1200 X40.948 Y121.841 E30.47254
G0 F6000 X40.948 Y122.463
G1 F1200 X46.777 Y128.293 E30.65352
G0 F6000 X46.155 Y128.293
G1 F1200 X40.948 Y123.086 E30.81517
G0 F6000 X40.948 Y123.708
G1 F1200 X45.533 Y128.293 E30.9575
G0 F6000 X44.911 Y128.293
G1 F1200 X40.948 Y124.33 E31.08053
G0 F6000 X40.948 Y124.952
G1 F1200 X44.288 Y128.293 E31.18424
G0 F6000 X43.666 Y128.293
G1 F1200 X40.948 Y125.575 E31.26861
G0 F6000 X40.948 Y126.197
G1 F1200 X43.044 Y128.293 E31.33368
G0 F6000 X42.422 Y128.293
G1 F1200 X40.948 Y126.819 E31.37944
G0 F6000 X40.948 Y127.441
G1 F1200 X41.799 Y128.293 E31.40588
G0 F6000 X41.177 Y128.293
G1 F1200 X40.948 Y128.064 E31.41299
M104 S200
G0 F6000 X40.133 Y128.064
;MESH:NONMESH
G0 F300 X40.133 Y128.064 Z0.24
G0 F6000 X40.545 Y128.698
G0 X63.143 Y128.9
M117 Time Left 0h14m44s
;LAYER:1
M117 Layer 1 of 15 CE3_ironing_test
M140 S55
M106 S85
;TYPE:WALL-INNER
;MESH:ironing_test.STL
G1 F1350 X40.343 Y128.9 E31.91349
G1 X40.343 Y106.1 E32.41398
G1 X63.143 Y106.1 E32.91448
G1 X63.143 Y128.9 E33.41498
G0 F7500 X63.583 Y129.34
G1 F1350 X39.903 Y129.34 E33.9348
G1 X39.903 Y105.66 E34.45461
G1 X63.583 Y105.66 E34.97443
G1 X63.583 Y129.34 E35.49424
G0 F7500 X64.023 Y129.78
;TYPE:WALL-OUTER
G1 F1350 X39.463 Y129.78 E36.03338
G1 X39.463 Y105.22 E36.57251
G1 X64.023 Y105.22 E37.11165
G1 X64.023 Y129.78 E37.65078
G0 F7500 X63.733 Y129.49
G0 X63.013 Y128.47
G0 X62.713 Y128.47
;TYPE:SKIN
G1 F1350 X40.773 Y128.47 E38.1324
G1 X40.773 Y106.53 E38.61402
G1 X62.713 Y106.53 E39.09564
G1 X62.713 Y128.47 E39.57726
G0 F7500 X62.116 Y128.293
G1 F1350 X62.536 Y127.873 E39.5903
G0 F7500 X62.536 Y127.25
G1 F1350 X61.494 Y128.293 E39.62266
G0 F7500 X60.871 Y128.293
G1 F1350 X62.536 Y126.628 E39.67435
G0 F7500 X62.536 Y126.006
G1 F1350 X60.249 Y128.293 E39.74535
G0 F7500 X59.627 Y128.293
G1 F1350 X62.536 Y125.384 E39.83566
G0 F7500 X62.536 Y124.761
G1 F1350 X59.005 Y128.293 E39.94529
G0 F7500 X58.382 Y128.293
G1 F1350 X62.536 Y124.139 E40.07425
G0 F7500 X62.536 Y123.517
G1 F1350 X57.76 Y128.293 E40.22252
G0 F7500 X57.138 Y128.293
G1 F1350 X62.536 Y122.895 E40.39009
G0 F7500 X62.536 Y122.272
G1 F1350 X56.516 Y128.293 E40.577
G0 F7500 X55.893 Y128.293
G1 F1350 X62.536 Y121.65 E40.78322
G0 F7500 X62.536 Y121.028
G1 F1350 X55.271 Y128.293 E41.00876
G0 F7500 X54.649 Y128.293
G1 F1350 X62.536 Y120.406 E41.25361
G0 F7500 X62.536 Y119.783
G1 F1350 X54.027 Y128.293 E41.51778
G0 F7500 X53.404 Y128.293
G1 F1350 X62.536 Y119.161 E41.80128
G0 F7500 X62.536 Y118.539
G1 F1350 X52.782 Y128.293 E42.10408
G0 F7500 X52.16 Y128.293
G1 F1350 X62.536 Y117.917 E42.4262
G0 F7500 X62.536 Y117.294
G1 F1350 X51.538 Y128.293 E42.76764
G0 F7500 X50.915 Y128.293
G1 F1350 X62.536 Y116.672 E43.12841
G0 F7500 X62.536 Y116.05
G1 F1350 X50.293 Y128.293 E43.50849
G0 F7500 X49.671 Y128.293
G1 F1350 X62.536 Y115.428 E43.90787
G0 F7500 X62.536 Y114.805
G1 F1350 X49.049 Y128.293 E44.32658
G0 F7500 X48.426 Y128.293
G1 F1350 X62.536 Y114.183 E44.76462
G0 F7500 X62.536 Y113.561
G1 F1350 X47.804 Y128.293 E45.22196
G0 F7500 X47.182 Y128.293
G1 F1350 X62.536 Y112.939 E45.69862
G0 F7500 X62.536 Y112.316
G1 F1350 X46.56 Y128.293 E46.1946
G0 F7500 X45.937 Y128.293
G1 F1350 X62.536 Y111.694 E46.70991
G0 F7500 X62.536 Y111.072
G1 F1350 X45.315 Y128.293 E47.24452
G0 F7500 X44.693 Y128.293
G1 F1350 X62.536 Y110.45 E47.79845
G0 F7500 X62.536 Y109.827
G1 F1350 X44.071 Y128.293 E48.3717
G0 F7500 X43.448 Y128.293
G1 F1350 X62.536 Y109.205 E48.96427
G0 F7500 X62.536 Y108.583
G1 F1350 X42.826 Y128.293 E49.57616
G0 F7500 X42.204 Y128.293
G1 F1350 X62.536 Y107.961 E50.20735
G0 F7500 X62.536 Y107.338
G1 F1350 X41.582 Y128.293 E50.85787
G0 F7500 X40.959 Y128.293
G1 F1350 X62.536 Y106.716 E51.52771
G0 F7500 X61.925 Y106.705
G1 F1350 X40.948 Y127.682 E52.17893
G0 F7500 X40.948 Y127.06
G1 F1350 X61.303 Y106.705 E52.81084
G0 F7500 X60.681 Y106.705
G1 F1350 X40.948 Y126.437 E53.42342
G0 F7500 X40.948 Y125.815
G1 F1350 X60.058 Y106.705 E54.01668
G0 F7500 X59.436 Y106.705
G1 F1350 X40.948 Y125.193 E54.59063
G0 F7500 X40.948 Y124.571
G1 F1350 X58.814 Y106.705 E55.14527
G0 F7500 X58.192 Y106.705
G1 F1350 X40.948 Y123.948 E55.68058
G0 F7500 X40.948 Y123.326
G1 F1350 X57.569 Y106.705 E56.19657
G0 F7500 X56.947 Y106.705
G1 F1350 X40.948 Y122.704 E56.69325
G0 F7500 X40.948 Y122.081
G1 F1350 X56.325 Y106.705 E57.1706
G0 F7500 X55.703 Y106.705
G1 F1350 X40.948 Y121.459 E57.62865
G0 F7500 X40.948 Y120.837
G1 F1350 X55.08 Y106.705 E58.06737
G0 F7500 X54.458 Y106.705
G1 F1350 X40.948 Y120.215 E58.48678
G0 F7500 X40.948 Y119.592
G1 F1350 X53.836 Y106.705 E58.88686
G0 F7500 X53.214 Y106.705
G1 F1350 X40.948 Y118.97 E59.26764
G0 F7500 X40.948 Y118.348
G1 F1350 X52.591 Y106.705 E59.62909
G0 F7500 X51.969 Y106.705
G1 F1350 X40.948 Y117.726 E59.97123
G0 F7500 X40.948 Y117.103
G1 F1350 X51.347 Y106.705 E60.29404
G0 F7500 X50.725 Y106.705
G1 F1350 X40.948 Y116.481 E60.59755
G0 F7500 X40.948 Y115.859
G1 F1350 X50.102 Y106.705 E60.88173
G0 F7500 X49.48 Y106.705
G1 F1350 X40.948 Y115.237 E61.1466
G0 F7500 X40.948 Y114.614
G1 F1350 X48.858 Y106.705 E61.39214
G0 F7500 X48.235 Y106.705
G1 F1350 X40.948 Y113.992 E61.61836
G0 F7500 X40.948 Y113.37
G1 F1350 X47.613 Y106.705 E61.82527
G0 F7500 X46.991 Y106.705
G1 F1350 X40.948 Y112.748 E62.01287
G0 F7500 X40.948 Y112.125
G1 F1350 X46.369 Y106.705 E62.18115
G0 F7500 X45.746 Y106.705
G1 F1350 X40.948 Y111.503 E62.3301
G0 F7500 X40.948 Y110.881
G1 F1350 X45.124 Y106.705 E62.45974
G0 F7500 X44.502 Y106.705
G1 F1350 X40.948 Y110.259 E62.57007
G0 F7500 X40.948 Y109.636
G1 F1350 X43.88 Y106.705 E62.66108
G0 F7500 X43.257 Y106.705
G1 F1350 X40.948 Y109.014 E62.73276
G0 F7500 X40.948 Y108.392
G1 F1350 X42.635 Y106.705 E62.78513
G0 F7500 X42.013 Y106.705
G1 F1350 X40.948 Y107.77 E62.8182
G0 F7500 X40.948 Y107.147
G1 F1350 X41.391 Y106.705 E62.83193
G0 F7500 X41.391 Y105.89
G1 F2700 E57.83193
;MESH:NONMESH
G0 F300 X41.391 Y105.89 Z0.36
G0 F7500 X62.941 Y106.302
G0 X63.143 Y128.9
M117 Time Left 0h13m33s
;LAYER:2
M117 Layer 2 of 15 CE3_ironing_test
M106 S170
;TYPE:WALL-INNER
;MESH:ironing_test.STL
G1 F2700 E62.83193
G1 F1500 X40.343 Y128.9 E63.33243
G1 X40.343 Y106.1 E63.83293
G1 X63.143 Y106.1 E64.33343
G1 X63.143 Y128.9 E64.83393
G0 F9000 X63.583 Y129.34
G1 F1500 X39.903 Y129.34 E65.35374
G1 X39.903 Y105.66 E65.87356
G1 X63.583 Y105.66 E66.39338
G1 X63.583 Y129.34 E66.91319
G0 F9000 X64.023 Y129.78
;TYPE:WALL-OUTER
G1 F1500 X39.463 Y129.78 E67.45233
G1 X39.463 Y105.22 E67.99146
G1 X64.023 Y105.22 E68.53059
G1 X64.023 Y129.78 E69.06973
G0 F9000 X63.733 Y129.49
G0 X63.013 Y128.47
G0 X62.713 Y128.47
;TYPE:SKIN
G1 F1500 X40.773 Y128.47 E69.55135
G1 X40.773 Y106.53 E70.03297
G1 X62.713 Y106.53 E70.51459
G1 X62.713 Y128.47 E70.99621
G0 F9000 X63.013 Y128.47
G0 X63.013 Y107.338
G0 X62.536 Y107.338
G1 F1500 X61.902 Y106.705 E71.01587
G0 F9000 X61.28 Y106.705
G1 F1500 X62.536 Y107.961 E71.05486
G0 F9000 X62.536 Y108.583
G1 F1500 X60.658 Y106.705 E71.11317
G0 F9000 X60.036 Y106.705
G1 F1500 X62.536 Y109.205 E71.19078
G0 F9000 X62.536 Y109.827
G1 F1500 X59.413 Y106.705 E71.28771
G0 F9000 X58.791 Y106.705
G1 F1500 X62.536 Y110.45 E71.40397
G0 F9000 X62.536 Y111.072
G1 F1500 X58.169 Y106.705 E71.53954
G0 F9000 X57.547 Y106.705
G1 F1500 X62.536 Y111.694 E71.69443
G0 F9000 X62.536 Y112.316
G1 F1500 X56.924 Y106.705 E71.86863
G0 F9000 X56.302 Y106.705
G1 F1500 X62.536 Y112.939 E72.06216
G0 F9000 X62.536 Y113.561
G1 F1500 X55.68 Y106.705 E72.275
G0 F9000 X55.058 Y106.705
G1 F1500 X62.536 Y114.183 E72.50715
G0 F9000 X62.536 Y114.805
G1 F1500 X54.435 Y106.705 E72.75863
G0 F9000 X53.813 Y106.705
G1 F1500 X62.536 Y115.428 E73.02943
G0 F9000 X62.536 Y116.05
G1 F1500 X53.191 Y106.705 E73.31954
G0 F9000 X52.569 Y106.705
G1 F1500 X62.536 Y116.672 E73.62896
G0 F9000 X62.536 Y117.294
G1 F1500 X51.946 Y106.705 E73.9577
G0 F9000 X51.324 Y106.705
G1 F1500 X62.536 Y117.917 E74.30577
G0 F9000 X62.536 Y118.539
G1 F1500 X50.702 Y106.705 E74.67315
G0 F9000 X50.08 Y106.705
G1 F1500 X62.536 Y119.161 E75.05984
G0 F9000 X62.536 Y119.783
G1 F1500 X49.457 Y106.705 E75.46585
G0 F9000 X48.835 Y106.705
G1 F1500 X62.536 Y120.406 E75.89119
G0 F9000 X62.536 Y121.028
G1 F1500 X48.213 Y106.705 E76.33584
G0 F9000 X47.591 Y106.705
G1 F1500 X62.536 Y121.65 E76.7998
G0 F9000 X62.536 Y122.272
G1 F1500 X46.968 Y106.705 E77.28308
G0 F9000 X46.346 Y106.705
G1 F1500 X62.536 Y122.895 E77.78569
G0 F9000 X62.536 Y123.517
G1 F1500 X45.724 Y106.705 E78.30761
G0 F9000 X45.102 Y106.705
G1 F1500 X62.536 Y124.139 E78.84883
G0 F9000 X62.536 Y124.761
G1 F1500 X44.479 Y106.705 E79.40939
G0 F9000 X43.857 Y106.705
G1 F1500 X62.536 Y125.384 E79.98927
G0 F9000 X62.536 Y126.006
G1 F1500 X43.235 Y106.705 E80.58845
G0 F9000 X42.613 Y106.705
G1 F1500 X62.536 Y126.628 E81.20695
G0 F9000 X62.536 Y127.25
G1 F1500 X41.99 Y106.705 E81.84477
G0 F9000 X41.368 Y106.705
G1 F1500 X62.536 Y127.873 E82.50192
G0 F9000 X62.334 Y128.293
G1 F1500 X40.948 Y106.907 E83.16583
G0 F9000 X40.948 Y107.529
G1 F1500 X61.712 Y128.293 E83.81044
G0 F9000 X61.089 Y128.293
G1 F1500 X40.948 Y108.151 E84.43572
G0 F9000 X40.948 Y108.774
G1 F1500 X60.467 Y128.293 E85.04168
G0 F9000 X59.845 Y128.293
G1 F1500 X40.948 Y109.396 E85.62832
G0 F9000 X40.948 Y110.018
G1 F1500 X59.223 Y128.293 E86.19566
G0 F9000 X58.6 Y128.293
G1 F1500 X40.948 Y110.64 E86.74367
G0 F9000 X40.948 Y111.263
G1 F1500 X57.978 Y128.293 E87.27235
G0 F9000 X57.356 Y128.293
G1 F1500 X40.948 Y111.885 E87.78173
G0 F9000 X40.948 Y112.507
G1 F1500 X56.734 Y128.293 E88.2718
G0 F9000 X56.111 Y128.293
G1 F1500 X40.948 Y113.13 E88.74252
G0 F9000 X40.948 Y113.752
G1 F1500 X55.489 Y128.293 E89.19394
G0 F9000 X54.867 Y128.293
G1 F1500 X40.948 Y114.374 E89.62605
G0 F9000 X40.948 Y114.996
G1 F1500 X54.244 Y128.293 E90.03883
G0 F9000 X53.622 Y128.293
G1 F1500 X40.948 Y115.619 E90.43228
G0 F9000 X40.948 Y116.241
G1 F1500 X53 Y128.293 E90.80643
G0 F9000 X52.378 Y128.293
G1 F1500 X40.948 Y116.863 E91.16127
G0 F9000 X40.948 Y117.485
G1 F1500 X51.755 Y128.293 E91.49678
G0 F9000 X51.133 Y128.293
G1 F1500 X40.948 Y118.108 E91.81297
G0 F9000 X40.948 Y118.73
G1 F1500 X50.511 Y128.293 E92.10984
G0 F9000 X49.889 Y128.293
G1 F1500 X40.948 Y119.352 E92.38741
G0 F9000 X40.948 Y119.974
G1 F1500 X49.266 Y128.293 E92.64565
G0 F9000 X48.644 Y128.293
G1 F1500 X40.948 Y120.597 E92.88457
G0 F9000 X40.948 Y121.219
G1 F1500 X48.022 Y128.293 E93.10418
G0 F9000 X47.4 Y128.293
G1 F1500 X40.948 Y121.841 E93.30448
G0 F9000 X40.948 Y122.463
G1 F1500 X46.777 Y128.293 E93.48545
G0 F9000 X46.155 Y128.293
G1 F1500 X40.948 Y123.086 E93.6471
G0 F9000 X40.948 Y123.708
G1 F1500 X45.533 Y128.293 E93.78944
G0 F9000 X44.911 Y128.293
G1 F1500 X40.948 Y124.33 E93.91247
G0 F9000 X40.948 Y124.952
